X:1
T: Mueter, was sy V\"ogeli? (Schottisch)  CGF
T:Hanny Christen. Bd.VI  Fribourg, Welschland, Wallis, Bern I. S.260 (st00985) orig. C,G,F-Dur
T:Walliser (Volks-)T\"anze. S.234-276
%%MIDI program 21
R:shottishe
M:2/4
L:1/8
K:C %%MIDI gchordon
"C"eG ef | "G7"dG de | ff/e/ fg | "C"fe/d/ cd | eG ef | "G7"dG de | gf/e/ fe/d/ | "C"ce cz :: [K:G] "G"BG/B/ d2 | 
dB/d/ g2 | "D7"f>e dc | "G"B/c/^c/d/ ed | BG/B/ d2 | dB/d/g2 | "D7"ff/e/ d/c/B/A/ | "G"GG G"_>Teil A"z :: [K:F] "F"AA/A/ AB | 
c2f2 | "Bb"dd/d/ df | "F"c2A2 | "C7"gg/g/ gf | edc2 |1 cc/c/ cB | "F"AGF2 :|2 c>B BE | "F"FF Fz || 
|: "C7"d>c e>c | "F"fc/=B/  cf | "C7"ec/=B/ c_B | "F"AG FC | "C7"d>c e>c | "F"fc/=B/ cA | "C7"B>E EC | "F"FA Fz :| 
W: Parts: ABACD
W: title lit. Mum/Mother, what are (little) birds?
W: in Swissgerman we often add the diminutive -li to nouns (H\"usli, B\"änkli, Bl\"umli ...), but 
W: this does not necessarily mean that we speak of  a little/small house, bench, flower ...

